Sources/FrostedUI/Resources/Icons.xcassets/ethereum12.imageset/ethereum-12.svg

<svg width="12" height="12" viewBox="0 0 12 12" fill="none" xmlns="http://www.w3.org/2000/svg" data-fui-icon="true">
  <path
    d="M6 0C6.25076 4.76648e-06 6.48493 0.125339 6.62402 0.333984L10.124 5.58398L10.1787 5.68164C10.289 5.91672 10.271 6.19551 10.124 6.41602L6.62402 11.666C6.48493 11.8747 6.25076 12 6 12C5.74924 12 5.51508 11.8747 5.37598 11.666L1.87598 6.41602C1.70803 6.16409 1.70803 5.83591 1.87598 5.58398L5.37598 0.333984L5.43262 0.259766C5.57405 0.0960442 5.78061 0 6 0ZM6.25195 7.95605C6.08895 8.01422 5.91105 8.01422 5.74805 7.95605L4.37891 7.4668L6 9.89746L7.62012 7.4668L6.25195 7.95605ZM3.65625 5.61621L6 6.45312L8.34277 5.61621L6 2.10156L3.65625 5.61621Z"
    fill="currentColor"
  />
</svg>

<svg xmlns="http://www.w3.org/2000/svg" width="12" height="12" fill="none" data-fui-icon="true" viewBox="0 0 12 12"><path fill="currentColor" d="M6 0a.75.75 0 0 1 .624.334l3.5 5.25.055.098a.75.75 0 0 1-.055.734l-3.5 5.25a.75.75 0 0 1-1.248 0l-3.5-5.25a.75.75 0 0 1 0-.832l3.5-5.25.057-.074A.75.75 0 0 1 6 0m.252 7.956a.75.75 0 0 1-.504 0l-1.37-.49L6 9.898l1.62-2.43zm-2.596-2.34L6 6.453l2.343-.837L6 2.102z"/></svg>
